public/assets/img/cabinet.svg

<svg width="34" height="33" viewBox="0 0 34 33" fill="none" xmlns="http://www.w3.org/2000/svg">
<rect x="0.5" y="0.5" width="33" height="32" rx="16" stroke="white"/>
<path d="M9.8 23H8C8 20.1281 10.4177 17.8 13.4 17.8C16.3823 17.8 18.8 20.1281 18.8 23H17C17 21.0854 15.3882 19.5333 13.4 19.5333C11.4118 19.5333 9.8 21.0854 9.8 23ZM23.3 20.4H21.5V17.8H18.8V16.0667H21.5V13.4667H23.3V16.0667H26V17.8H23.3V20.4ZM13.4 16.9333C11.4118 16.9333 9.8 15.3813 9.8 13.4667C9.8 11.5521 11.4118 10 13.4 10C15.3882 10 17 11.5521 17 13.4667C16.9975 15.3803 15.3872 16.9309 13.4 16.9333ZM13.4 11.7333C12.4167 11.7343 11.6161 12.495 11.602 13.4418C11.5879 14.3887 12.3655 15.1711 13.3484 15.1992C14.3313 15.2273 15.1557 14.4906 15.2 13.5447V13.8913V13.4667C15.2 12.5094 14.3941 11.7333 13.4 11.7333Z" fill="white"/>
</svg>

<svg width="34" height="33" fill="none" xmlns="http://www.w3.org/2000/svg"><rect x=".5" y=".5" width="33" height="32" rx="16" stroke="#fff"/><path d="M9.8 23H8c0-2.872 2.418-5.2 5.4-5.2s5.4 2.328 5.4 5.2H17c0-1.915-1.612-3.467-3.6-3.467S9.8 21.085 9.8 23Zm13.5-2.6h-1.8v-2.6h-2.7v-1.733h2.7v-2.6h1.8v2.6H26V17.8h-2.7v2.6Zm-9.9-3.467c-1.988 0-3.6-1.552-3.6-3.466C9.8 11.552 11.412 10 13.4 10s3.6 1.552 3.6 3.467c-.003 1.913-1.613 3.464-3.6 3.466Zm0-5.2c-.983.001-1.784.762-1.798 1.709-.014.947.764 1.73 1.746 1.757.983.028 1.808-.708 1.852-1.654v.346-.424c0-.958-.806-1.734-1.8-1.734Z" fill="#fff"/></svg>
